icons/svg/crypto/bdot.svg

<svg fill="none" height="32" viewBox="0 0 32 32" width="32" xmlns="http://www.w3.org/2000/svg"><path d="m30.8 16c0 8.1738-6.6262 14.8-14.8 14.8-8.17381 0-14.8-6.6262-14.8-14.8 0-8.17381 6.62619-14.8 14.8-14.8 8.1738 0 14.8 6.62619 14.8 14.8z" fill="#fff" stroke="#f2bd11" stroke-width="2.4"/><path d="m16.0002 6c1.9918 0 3.6066.93912 3.6066 2.09758 0 1.15845-1.6148 2.09762-3.6066 2.09762-1.9919 0-3.6066-.93917-3.6066-2.09762 0-1.15846 1.6147-2.09758 3.6066-2.09758zm0 15.8048c1.9918 0 3.6066.9392 3.6066 2.0976 0 1.1585-1.6148 2.0976-3.6066 2.0976-1.9919 0-3.6066-.9391-3.6066-2.0976 0-1.1584 1.6147-2.0976 3.6066-2.0976zm-8.6615-10.8051c.99594-1.72496 2.61712-2.65345 3.621-2.07381 1.0039.57965 1.0104 2.44781.0145 4.17281-.99597 1.7249-2.61715 2.6534-3.62108 2.0738-1.00392-.5796-1.01035-2.4479-.01442-4.1728zm13.6884 7.9029c.9959-1.725 2.6165-2.6538 3.6198-2.0745 1.0032.5792 1.0091 2.4471.0132 4.1721-.9959 1.7249-2.6166 2.6537-3.6198 2.0745-1.0032-.5793-1.0091-2.4472-.0132-4.1721zm-13.67345-2.075c1.0039-.5796 2.62508.3488 3.62105 2.0738.9959 1.7249.9894 3.5932-.0145 4.1728-1.00388.5796-2.62506-.3489-3.621-2.0738-.99593-1.725-.98946-3.5932.01445-4.1728zm13.68745-7.90126c1.0033-.57922 2.6239.34957 3.6198 2.07456.996 1.7249.99 3.5928-.0132 4.172-1.0032.5793-2.6238-.3495-3.6198-2.0745-.9959-1.7249-.99-3.59282.0132-4.17204z" fill="#e6007a"/></svg>

<svg fill="none" height="32" width="32" xmlns="http://www.w3.org/2000/svg">
    <path d="M30.8 16c0 8.174-6.626 14.8-14.8 14.8S1.2 24.174 1.2 16 7.826 1.2 16 1.2 30.8 7.826 30.8 16Z" fill="#fff" stroke="#F2BD11"
        stroke-width="2.4" />
    <path d="M16 6c1.992 0 3.607.94 3.607 2.098S17.992 10.195 16 10.195c-1.992 0-3.606-.939-3.606-2.097C12.394 6.939 14.008 6 16 6Zm0 15.805c1.992 0 3.607.939 3.607 2.097C19.607 25.061 17.992 26 16 26c-1.992 0-3.606-.94-3.606-2.098s1.614-2.097 3.606-2.097ZM7.34 11c.996-1.725 2.617-2.654 3.62-2.074 1.005.58 1.011 2.448.015 4.173-.996 1.725-2.617 2.653-3.62 2.073-1.005-.58-1.011-2.447-.015-4.172Zm13.688 7.903c.996-1.725 2.617-2.654 3.62-2.075 1.003.58 1.009 2.447.013 4.172-.996 1.725-2.616 2.654-3.62 2.075-1.003-.58-1.009-2.447-.013-4.172ZM7.354 16.828c1.004-.58 2.625.348 3.62 2.073.997 1.725.99 3.594-.014 4.173-1.004.58-2.625-.349-3.62-2.074-.997-1.725-.99-3.593.014-4.172ZM21.04 8.926c1.003-.579 2.624.35 3.62 2.075s.99 3.593-.013 4.172c-1.003.58-2.624-.35-3.62-2.075s-.99-3.592.013-4.172Z"
        fill="#E6007A" />
</svg>
